images/form/transfer-2.svg

<svg width="101" height="23" viewBox="0 0 101 23" fill="none" xmlns="http://www.w3.org/2000/svg">
<path d="M10.2573 6.4558C10.0153 8.9342 10.1536 11.8315 10.3265 14.275C10.361 14.5193 10.0153 14.5542 9.8424 14.4495C9.35833 14.0655 9.11629 13.0532 9.08172 12.4249C8.97799 10.4701 8.97799 8.65495 9.08172 6.70015C6.52305 6.80487 3.75693 6.73506 1.23284 7.01431C1.12911 9.35309 1.19826 11.5871 1.30199 13.8212C1.33657 13.891 1.19826 13.9957 1.02538 14.0306C0.921647 14.0306 0.748764 13.9957 0.645034 13.891C0.195539 13.4372 0.0918093 12.5994 0.0572328 12.0409C-0.11565 8.51532 0.126386 4.9897 0.472151 1.5339C0.541305 1.32446 0.852494 1.11501 1.12911 1.28955C1.50945 1.46409 1.50945 1.91788 1.5786 2.26695C1.50945 3.17453 1.40572 4.71044 1.30199 5.79256C3.82608 5.61803 6.62678 5.72275 9.15087 5.68784C9.28918 3.9774 9.35833 2.26695 9.77325 0.661223C9.94613 0.45178 10.2919 0.591409 10.4994 0.800851C10.6722 1.01029 10.776 1.42918 10.776 1.67353C10.6031 3 10.361 4.29156 10.3265 5.65294C10.4302 5.65294 10.5339 5.61803 10.6377 5.61803C10.7068 5.61803 10.8105 5.68784 10.8105 5.86238C10.8105 5.93219 10.8105 6.07182 10.7414 6.14163C10.6377 6.28126 10.4302 6.38598 10.2573 6.4558Z" fill="#262626"/>
<path d="M17.9984 14.3448C16.2696 14.275 14.6791 13.4721 13.6763 11.9711C12.8465 10.7145 12.639 9.24836 12.8119 7.81717C13.0194 6.21145 13.6763 4.67554 14.5753 3.4887C15.5781 2.16223 16.9957 1.11501 18.6208 0.800851C19.7272 0.591409 20.9028 0.69613 21.7327 1.60371C22.113 2.0226 22.4588 2.47639 22.4588 3.0349C22.4934 3.62832 22.2168 4.15193 21.7327 4.53591C19.3123 6.56052 16.7537 8.4455 14.1258 9.98141C14.195 11.0635 15.1286 12.1806 16.1313 12.7391C17.134 13.2976 18.3096 13.3674 19.4161 13.2278C20.5225 13.1231 21.6635 12.7391 22.4588 12.3551C22.5971 12.2504 22.7008 12.3551 22.7354 12.4598C22.77 12.5296 22.8391 12.6693 22.7008 12.774C21.4907 13.891 19.7618 14.4146 17.9984 14.3448ZM19.5198 1.88297C18.5171 1.88297 17.5143 2.30186 16.7191 2.93018C15.0248 4.32647 14.0221 6.56052 14.0221 8.72476C16.477 7.36338 18.7937 5.58312 21.0412 3.73305C21.214 3.59342 21.3523 3.06981 21.1103 2.65093C20.8337 2.09241 20.2113 1.88297 19.5198 1.88297Z" fill="#262626"/>
<path d="M44.4287 6.4558C44.1867 8.9342 44.325 11.8315 44.4978 14.275C44.5324 14.5193 44.1867 14.5542 44.0138 14.4495C43.5297 14.0655 43.2877 13.0532 43.2531 12.4249C43.1494 10.4701 43.1494 8.65495 43.2531 6.70015C40.6944 6.80487 37.9283 6.73506 35.4042 7.01431C35.3005 9.35309 35.3696 11.5871 35.4734 13.8212C35.5079 13.891 35.3696 13.9957 35.1967 14.0306C35.093 14.0306 34.9201 13.9957 34.8164 13.891C34.3669 13.4372 34.2632 12.5994 34.2286 12.0409C34.0557 8.51532 34.2978 4.9897 34.6435 1.5339C34.7127 1.32446 35.0239 1.11501 35.3005 1.28955C35.6808 1.46409 35.6808 1.91788 35.75 2.26695C35.6808 3.17453 35.5771 4.71044 35.4734 5.79256C37.9974 5.61803 40.7981 5.72275 43.3222 5.68784C43.4605 3.9774 43.5297 2.26695 43.9446 0.661223C44.1175 0.45178 44.4633 0.591409 44.6707 0.800851C44.8436 1.01029 44.9473 1.42918 44.9473 1.67353C44.7745 3 44.5324 4.29156 44.4978 5.65294C44.6016 5.65294 44.7053 5.61803 44.809 5.61803C44.8782 5.61803 44.9819 5.68784 44.9819 5.86238C44.9819 5.93219 44.9819 6.07182 44.9128 6.14163C44.809 6.28126 44.6016 6.38598 44.4287 6.4558Z" fill="#262626"/>
<path d="M54.9359 11.4475C53.3108 15.008 52.0315 18.6733 50.7867 22.3734C50.683 22.5829 50.1989 22.6527 50.0952 22.3734C49.9223 22.0593 50.026 21.2215 50.0952 20.9073C50.6484 18.5337 51.6511 16.3345 52.481 14.0655C51.4783 12.5645 50.1989 10.505 49.2308 8.72476C48.0206 6.4558 47.0179 4.08212 46.6375 1.46409C46.5684 1.11501 46.7758 0.765944 47.0525 0.626315C47.2599 0.556501 47.3982 0.661223 47.502 0.765944C47.6057 0.870665 47.6748 1.01029 47.744 1.14992C48.0898 3.24435 48.7813 5.19914 49.6457 7.04922C50.6138 9.03892 51.7549 10.9239 53.0342 12.8089C53.8295 11.0635 54.6593 9.31818 55.5583 7.60773C56.4573 5.86238 57.46 4.18684 58.6702 2.54621C58.9122 2.23204 59.258 1.88297 59.5692 2.05751C59.7766 2.16223 59.9495 2.47639 59.7766 2.72074C57.9441 5.54821 56.319 8.4455 54.9359 11.4475Z" fill="#262626"/>
<path d="M69.014 7.11903C69.014 7.22375 69.014 7.39829 68.9794 7.53792C70.2242 8.34078 71.3652 9.35309 72.4716 10.4701C73.5781 11.5522 74.6845 12.7391 75.791 13.8212C75.9639 13.9608 75.6873 14.2052 75.5835 14.2052C75.0303 13.9957 74.6154 13.6816 74.1313 13.3325C73.751 13.0183 73.336 12.6344 72.8866 12.3202C71.6418 11.1333 70.3279 9.98141 69.014 8.9342C68.9448 10.7494 69.1523 12.4598 69.3597 14.2401C69.2906 14.5193 68.9794 14.5542 68.7719 14.4495C68.5299 14.0655 68.4262 13.6467 68.3224 13.2278C68.2533 12.8089 68.1841 12.3551 68.115 11.9362C67.9075 10.6446 67.9075 9.45781 67.9075 8.06152L67.7692 7.9568C66.075 9.14364 64.2424 10.6097 62.6173 11.9013C62.5482 11.9013 62.4444 11.9362 62.3407 11.9711C62.237 11.9711 62.0987 11.9711 62.0295 11.8664C61.8912 11.7617 61.9258 11.622 61.9604 11.5173C61.9949 11.4126 62.0641 11.3079 62.1332 11.2032C63.6546 9.80688 65.2451 8.51532 66.8357 7.36338C65.176 6.17654 63.4126 5.12933 61.6492 4.15193C61.3034 3.90758 60.8539 3.5236 60.9576 2.96509C61.0959 2.68583 61.5109 2.75565 61.6837 2.86037C63.8275 4.0123 65.9021 5.19914 67.8384 6.66524L67.9421 6.59543C67.9767 4.74535 68.0804 2.61602 68.6682 0.765944C68.9448 0.347059 69.4289 0.731036 69.498 1.0452C69.5672 2.65093 69.1523 4.15193 69.1177 5.75766C71.3652 4.36137 73.6818 2.86037 76.0676 1.5339C76.3096 1.46409 76.4825 1.46409 76.7245 1.56881C76.8974 1.67353 77.0703 2.0226 76.8974 2.30186C74.3042 3.90758 71.6072 5.40859 69.014 7.11903Z" fill="#262626"/>
<path d="M83.6399 14.3448C81.911 14.275 80.3205 13.4721 79.3178 11.9711C78.488 10.7145 78.2805 9.24836 78.4534 7.81717C78.6608 6.21145 79.3178 4.67554 80.2168 3.4887C81.2195 2.16223 82.6371 1.11501 84.2622 0.800851C85.3687 0.591409 86.5443 0.69613 87.3741 1.60371C87.7545 2.0226 88.1002 2.47639 88.1002 3.0349C88.1348 3.62832 87.8582 4.15193 87.3741 4.53591C84.9538 6.56052 82.3951 8.4455 79.7673 9.98141C79.8364 11.0635 80.77 12.1806 81.7727 12.7391C82.7754 13.2976 83.951 13.3674 85.0575 13.2278C86.164 13.1231 87.305 12.7391 88.1002 12.3551C88.2385 12.2504 88.3423 12.3551 88.3769 12.4598C88.4114 12.5296 88.4806 12.6693 88.3423 12.774C87.1321 13.891 85.4033 14.4146 83.6399 14.3448ZM85.1612 1.88297C84.1585 1.88297 83.1558 2.30186 82.3605 2.93018C80.6663 4.32647 79.6636 6.56052 79.6636 8.72476C82.1185 7.36338 84.4351 5.58312 86.6826 3.73305C86.8555 3.59342 86.9938 3.06981 86.7517 2.65093C86.4751 2.09241 85.8528 1.88297 85.1612 1.88297Z" fill="#262626"/>
<path d="M100.447 6.4558C100.205 8.9342 100.343 11.8315 100.516 14.275C100.55 14.5193 100.205 14.5542 100.032 14.4495C99.5478 14.0655 99.3057 13.0532 99.2712 12.4249C99.1674 10.4701 99.1674 8.65495 99.2712 6.70015C96.7125 6.80487 93.9464 6.73506 91.4223 7.01431C91.3186 9.35309 91.3877 11.5871 91.4914 13.8212C91.526 13.891 91.3877 13.9957 91.2148 14.0306C91.1111 14.0306 90.9382 13.9957 90.8345 13.891C90.385 13.4372 90.2813 12.5994 90.2467 12.0409C90.0738 8.51532 90.3158 4.9897 90.6616 1.5339C90.7308 1.32446 91.0419 1.11501 91.3186 1.28955C91.6989 1.46409 91.6989 1.91788 91.7681 2.26695C91.6989 3.17453 91.5952 4.71044 91.4914 5.79256C94.0155 5.61803 96.8162 5.72275 99.3403 5.68784C99.4786 3.9774 99.5478 2.26695 99.9627 0.661223C100.136 0.45178 100.481 0.591409 100.689 0.800851C100.862 1.01029 100.965 1.42918 100.965 1.67353C100.793 3 100.55 4.29156 100.516 5.65294C100.62 5.65294 100.723 5.61803 100.827 5.61803C100.896 5.61803 101 5.68784 101 5.86238C101 5.93219 101 6.07182 100.931 6.14163C100.827 6.28126 100.62 6.38598 100.447 6.4558Z" fill="#262626"/>
</svg>

<svg width="101" height="23" fill="none" xmlns="http://www.w3.org/2000/svg"><path d="M10.257 6.456c-.242 2.478-.103 5.375.07 7.819.034.244-.312.28-.485.175-.484-.384-.726-1.397-.76-2.025a52.696 52.696 0 0 1 0-5.725c-2.559.105-5.325.035-7.85.314-.103 2.34-.034 4.573.07 6.807.035.07-.104.175-.277.21-.103 0-.276-.035-.38-.14-.45-.454-.553-1.292-.588-1.85-.173-3.526.07-7.051.415-10.507.07-.21.38-.419.657-.244.38.174.38.628.45.977-.07.908-.173 2.443-.277 3.526 2.524-.175 5.325-.07 7.849-.105.138-1.71.207-3.421.622-5.027.173-.21.519-.07.726.14.173.21.277.628.277.873-.173 1.326-.415 2.618-.45 3.979.104 0 .208-.035.312-.035.069 0 .172.07.172.244 0 .07 0 .21-.069.28-.103.14-.31.244-.484.314zM17.998 14.345c-1.728-.07-3.319-.873-4.322-2.374-.83-1.257-1.037-2.723-.864-4.154a9.266 9.266 0 0 1 1.763-4.328c1.003-1.327 2.42-2.374 4.046-2.688 1.106-.21 2.282-.105 3.112.803.38.419.726.872.726 1.43.034.594-.242 1.118-.726 1.502-2.42 2.025-4.98 3.91-7.607 5.445.069 1.082 1.003 2.2 2.005 2.758 1.003.559 2.179.628 3.285.489 1.107-.105 2.247-.489 3.043-.873.138-.105.242 0 .276.105.035.07.104.21-.034.314-1.21 1.117-2.94 1.64-4.703 1.57zM19.52 1.883c-1.003 0-2.006.419-2.8 1.047-1.695 1.396-2.698 3.63-2.698 5.795 2.455-1.362 4.772-3.142 7.02-4.992.172-.14.31-.663.068-1.082-.276-.559-.899-.768-1.59-.768zM44.429 6.456c-.242 2.478-.104 5.375.069 7.819.034.244-.311.28-.484.175-.484-.384-.726-1.397-.76-2.025a52.711 52.711 0 0 1 0-5.725c-2.56.105-5.326.035-7.85.314-.104 2.34-.034 4.573.07 6.807.034.07-.104.175-.277.21-.104 0-.277-.035-.38-.14-.45-.454-.554-1.292-.588-1.85-.173-3.526.069-7.051.415-10.507.069-.21.38-.419.657-.244.38.174.38.628.449.977-.07.908-.173 2.443-.277 3.526 2.524-.175 5.325-.07 7.85-.105.138-1.71.207-3.421.622-5.027.172-.21.518-.07.726.14.173.21.276.628.276.873-.172 1.326-.415 2.618-.45 3.979.105 0 .208-.035.312-.035.07 0 .173.07.173.244 0 .07 0 .21-.07.28-.103.14-.31.244-.483.314zM54.936 11.447c-1.625 3.561-2.904 7.226-4.15 10.926-.103.21-.587.28-.69 0-.174-.314-.07-1.152 0-1.466.552-2.373 1.555-4.573 2.385-6.841-1.003-1.502-2.282-3.561-3.25-5.341-1.21-2.27-2.213-4.643-2.593-7.26a.798.798 0 0 1 .415-.839c.207-.07.345.035.449.14.104.105.173.244.242.384.346 2.094 1.037 4.05 1.902 5.9.968 1.989 2.109 3.874 3.388 5.759.796-1.745 1.625-3.49 2.524-5.201.9-1.746 1.902-3.421 3.112-5.062.242-.314.588-.663.9-.488.207.104.38.418.207.663-1.833 2.827-3.458 5.724-4.841 8.726zM69.014 7.119c0 .105 0 .28-.035.419 1.245.803 2.386 1.815 3.493 2.932 1.106 1.082 2.213 2.27 3.319 3.351.173.14-.104.384-.207.384-.554-.21-.969-.523-1.453-.873-.38-.314-.795-.698-1.244-1.012a58.579 58.579 0 0 0-3.873-3.386c-.07 1.815.138 3.526.346 5.306-.07.28-.38.314-.588.21-.242-.384-.346-.803-.45-1.222-.069-.42-.138-.873-.207-1.292-.207-1.291-.207-2.478-.207-3.874l-.139-.105c-1.694 1.187-3.527 2.653-5.152 3.944-.069 0-.173.035-.276.07-.104 0-.242 0-.312-.105-.138-.104-.103-.244-.069-.349.035-.104.104-.21.173-.314a52.751 52.751 0 0 1 4.703-3.84c-1.66-1.186-3.423-2.234-5.187-3.211-.346-.244-.795-.628-.691-1.187.138-.28.553-.21.726-.105 2.144 1.152 4.218 2.34 6.154 3.805l.104-.07c.035-1.85.138-3.979.726-5.83.277-.418.76-.034.83.28.07 1.606-.346 3.107-.38 4.713 2.247-1.397 4.564-2.898 6.95-4.224a.86.86 0 0 1 .657.035c.172.105.345.454.172.733-2.593 1.606-5.29 3.107-7.883 4.817zM83.64 14.345c-1.729-.07-3.32-.873-4.322-2.374-.83-1.257-1.037-2.723-.865-4.154a9.265 9.265 0 0 1 1.764-4.328c1.002-1.327 2.42-2.374 4.045-2.688 1.107-.21 2.282-.105 3.112.803.38.419.726.872.726 1.43.035.594-.242 1.118-.726 1.502-2.42 2.025-4.979 3.91-7.607 5.445.07 1.082 1.003 2.2 2.006 2.758 1.002.559 2.178.628 3.285.489 1.106-.105 2.247-.489 3.042-.873.139-.105.242 0 .277.105.034.07.104.21-.035.314-1.21 1.117-2.939 1.64-4.702 1.57zM85.16 1.883c-1.002 0-2.005.419-2.8 1.047-1.695 1.396-2.697 3.63-2.697 5.795 2.454-1.362 4.771-3.142 7.019-4.992.172-.14.31-.663.069-1.082-.277-.559-.9-.768-1.59-.768zM100.447 6.456c-.242 2.478-.104 5.375.069 7.819.034.244-.311.28-.484.175-.484-.384-.726-1.397-.76-2.025a52.66 52.66 0 0 1 0-5.725c-2.56.105-5.326.035-7.85.314-.103 2.34-.034 4.573.07 6.807.034.07-.104.175-.277.21-.104 0-.277-.035-.38-.14-.45-.454-.554-1.292-.588-1.85-.173-3.526.069-7.051.415-10.507.069-.21.38-.419.657-.244.38.174.38.628.45.977-.07.908-.174 2.443-.278 3.526 2.525-.175 5.325-.07 7.85-.105.138-1.71.207-3.421.622-5.027.173-.21.518-.07.726.14.173.21.276.628.276.873-.172 1.326-.415 2.618-.449 3.979.104 0 .207-.035.311-.035.069 0 .173.07.173.244 0 .07 0 .21-.069.28-.104.14-.311.244-.484.314z" fill="#262626"/></svg>
